src/assets/svg/trustedcompanies/infinion-logo-default.svg

<svg width="42" height="30" viewBox="0 0 42 30" fill="none" xmlns="http://www.w3.org/2000/svg">
<path d="M0 12.7382V17.2542H0.786417V12.7382H0ZM2.66292 13.6803C2.66292 13.5168 2.75635 13.4234 2.93544 13.4234C3.07559 13.4234 3.15345 13.4856 3.21574 13.618L4.53163 16.4989C4.7185 17.0128 5.00659 17.3321 5.63728 17.3321C6.33026 17.3321 6.67286 16.935 6.67286 16.3432V12.7382H5.87866V16.3121C5.87866 16.4678 5.77744 16.569 5.61393 16.569C5.46599 16.569 5.38034 16.4911 5.32583 16.3821L4.00995 13.5012C3.82308 12.9873 3.54277 12.6681 2.91208 12.6681C2.21131 12.6681 1.8765 13.0652 1.8765 13.6492V17.262H2.66292V13.6881V13.6803ZM9.3825 12.7382C8.18341 12.7382 7.71623 13.3922 7.71623 14.2954V17.2542H8.50264V15.4711H11.2201V14.7237H8.50264V14.2954C8.50264 13.875 8.71287 13.5324 9.42921 13.5324H11.2512V12.746H9.3825V12.7382ZM12.1934 12.7382V17.2542H12.9798V12.7382H12.1934ZM14.8563 13.6803C14.8563 13.5168 14.9497 13.4234 15.1288 13.4234C15.2689 13.4234 15.3468 13.4856 15.4091 13.618L16.725 16.4989C16.9119 17.0128 17.1999 17.3321 17.8306 17.3321C18.5236 17.3321 18.8662 16.935 18.8662 16.3432V12.7382H18.072V16.3121C18.072 16.4678 17.9708 16.569 17.8073 16.569C17.6593 16.569 17.5737 16.4911 17.5192 16.3821L16.2033 13.5012C16.0164 12.9873 15.7361 12.6681 15.1054 12.6681C14.4047 12.6681 14.0699 13.0652 14.0699 13.6492V17.262H14.8563V13.6881V13.6803ZM19.9485 12.7382V17.2542H20.7349V12.7382H19.9485ZM23.7015 12.7382C22.3934 12.7382 21.6615 13.4856 21.6615 15.004C21.6615 16.5145 22.3856 17.2542 23.7015 17.2542H24.3166C25.6325 17.2542 26.3566 16.5223 26.3566 15.004C26.3566 13.4856 25.6247 12.7382 24.3166 12.7382H23.7015ZM24.3166 13.5246C25.1887 13.5246 25.5624 13.9684 25.5624 14.9962C25.5624 16.0318 25.1887 16.46 24.3166 16.46H23.7015C22.8294 16.46 22.4479 16.0318 22.4479 15.004C22.4479 13.9684 22.8294 13.5246 23.7015 13.5246H24.3166ZM28.0696 13.6803C28.0696 13.5168 28.1631 13.4234 28.3421 13.4234C28.4823 13.4234 28.5602 13.4856 28.6225 13.618L29.9383 16.4989C30.1252 17.0128 30.4133 17.3321 31.044 17.3321C31.737 17.3321 32.0796 16.935 32.0796 16.3432V12.7382H31.2854V16.3121C31.2854 16.4678 31.1841 16.569 31.0206 16.569C30.8727 16.569 30.787 16.4911 30.7325 16.3821L29.4167 13.5012C29.2298 12.9873 28.9495 12.6681 28.3188 12.6681C27.618 12.6681 27.2832 13.0652 27.2832 13.6492V17.262H28.0696V13.6881V13.6803Z" fill="black"/>
<path fill-rule="evenodd" clip-rule="evenodd" d="M26.8937 29.0506C20.0262 29.0506 14.3111 24.1374 13.0731 17.6359H12.1465C13.4001 24.6435 19.5279 29.9616 26.8937 29.9616C35.1706 29.9616 41.8746 23.2498 41.8746 14.9808C41.8746 6.70398 35.1628 0 26.8937 0C19.5357 0 13.4234 5.30245 12.1543 12.2867H13.0808C14.3422 5.80855 20.0418 0.910993 26.8937 0.910993C34.6645 0.910993 40.9636 7.21008 40.9636 14.9808C40.9636 22.7515 34.6645 29.0506 26.8937 29.0506Z" fill="#F26113"/>
</svg>

<svg xmlns="http://www.w3.org/2000/svg" width="42" height="30" fill="none" viewBox="0 0 42 30"><path fill="#000" d="M0 12.738v4.516h.786v-4.516zm2.663.942c0-.163.093-.257.272-.257.14 0 .218.063.28.195l1.317 2.88c.186.515.475.834 1.105.834.693 0 1.036-.397 1.036-.989v-3.605h-.794v3.574c0 .156-.102.257-.265.257-.148 0-.234-.078-.288-.187l-1.316-2.88c-.187-.515-.467-.834-1.098-.834-.7 0-1.035.397-1.035.981v3.613h.786zm6.72-.942c-1.2 0-1.667.654-1.667 1.557v2.96h.787V15.47h2.717v-.747H8.503v-.429c0-.42.21-.763.926-.763h1.822v-.786H9.383zm2.81 0v4.516h.787v-4.516zm2.663.942c0-.163.094-.257.273-.257.14 0 .218.063.28.195l1.316 2.88c.187.515.475.834 1.106.834.693 0 1.035-.397 1.035-.989v-3.605h-.794v3.574c0 .156-.101.257-.265.257-.148 0-.233-.078-.288-.187l-1.316-2.88c-.187-.515-.467-.834-1.098-.834-.7 0-1.035.397-1.035.981v3.613h.786zm5.092-.942v4.516h.787v-4.516zm3.753 0c-1.308 0-2.04.748-2.04 2.266 0 1.51.725 2.25 2.04 2.25h.616c1.316 0 2.04-.732 2.04-2.25s-.732-2.266-2.04-2.266zm.616.787c.872 0 1.245.443 1.245 1.471 0 1.036-.373 1.464-1.245 1.464H23.7c-.872 0-1.253-.428-1.253-1.456 0-1.036.381-1.48 1.253-1.48zm3.753.155c0-.163.093-.257.272-.257.14 0 .218.063.28.195l1.316 2.88c.187.515.475.834 1.106.834.693 0 1.036-.397 1.036-.989v-3.605h-.795v3.574c0 .156-.1.257-.264.257-.148 0-.234-.078-.288-.187l-1.316-2.88c-.187-.515-.468-.834-1.098-.834-.701 0-1.036.397-1.036.981v3.613h.787z"/><path fill="#f26113" fill-rule="evenodd" d="M26.894 29.05c-6.868 0-12.583-4.913-13.82-11.414h-.928c1.254 7.008 7.382 12.326 14.748 12.326 8.277 0 14.98-6.712 14.98-14.981C41.875 6.704 35.164 0 26.895 0c-7.358 0-13.47 5.302-14.74 12.287h.927C14.342 5.809 20.04.91 26.894.91c7.77 0 14.07 6.3 14.07 14.07s-6.3 14.07-14.07 14.07" clip-rule="evenodd"/></svg>
